X: 1
T: Pullet, The
C: R-43
M: C|
Z: Transcribed to abc by Mary Lou Knack
R: reel
K: D
fe| "Bm"dB (3BBB B2dB| "D"AFAB ABde| "Bm"fB (3BBB B2dB| "D"ABde fefa|
    "Bm"bB (3BBB B2dB| "D"A2AB ABde| "Bm"fB (3BBB B2dB| "D"ABde f2 :|
|:\
fe| "D"defg abaf| defg a2af| defg abaf| "Em"edef g2fe|
    "D"defg abaf| defg a2gf| "Em"gfga bagf| "A"edef g2 :|
%%text 9/1/98
